packages/kaspersky-hexa-ui-icons/src/iconsSVGs/24/ConfigureGroups.svg

<svg width="24" height="24" viewBox="0 0 24 24" fill="none" xmlns="http://www.w3.org/2000/svg">
<path fill-rule="evenodd" clip-rule="evenodd" d="M2 4C2 2.98691 2.86082 2 4.00058 2H6C6.49596 2 7.06241 2.16684 7.48559 2.54057L7.5179 2.5691L7.92845 3H10.9994C12.1392 3 13 3.98691 13 5V9C13 10.0131 12.1392 11 10.9994 11H4.00058C2.86082 11 2 10.0131 2 9V4ZM4 4.02471V8.97529L4.002 8.97842C4.00512 8.98309 4.00895 8.98788 4.01325 8.99234C4.01624 8.99545 4.01908 8.998 4.02156 9H10.9784C10.9809 8.998 10.9838 8.99545 10.9868 8.99234C10.991 8.98788 10.9949 8.98309 10.998 8.97842L11 8.97529V5.02471L10.998 5.02158C10.9949 5.01691 10.991 5.01212 10.9868 5.00766C10.9838 5.00455 10.9809 5.002 10.9784 5H7.5C7.22639 5 6.96474 4.88789 6.776 4.6898L6.15237 4.03526C6.14464 4.03131 6.13304 4.02604 6.11709 4.02053C6.07693 4.00666 6.03388 4 6 4H4.02156C4.01908 4.002 4.01624 4.00455 4.01325 4.00766C4.00895 4.01212 4.00512 4.01691 4.002 4.02158L4 4.02471Z" fill="black"/>
<path fill-rule="evenodd" clip-rule="evenodd" d="M11 15C11 13.9869 11.8608 13 13.0006 13H15C15.496 13 16.0624 13.1668 16.4856 13.5406L16.5179 13.5691L16.9284 14H19.9994C21.1392 14 22 14.9869 22 16V20C22 21.0131 21.1392 22 19.9994 22H13.0006C11.8608 22 11 21.0131 11 20V15ZM13 15.0247V19.9753L13.002 19.9784C13.0051 19.9831 13.009 19.9879 13.0132 19.9923C13.0162 19.9955 13.0191 19.998 13.0216 20H19.9784L19.9823 19.9967L19.9868 19.9923C19.991 19.9879 19.9949 19.9831 19.998 19.9784L20 19.9753V16.0247L19.998 16.0216L19.9939 16.0159C19.9917 16.0131 19.9893 16.0103 19.9868 16.0077C19.9838 16.0045 19.9809 16.002 19.9784 16H16.5C16.2264 16 15.9647 15.8879 15.776 15.6898L15.1524 15.0353C15.1446 15.0313 15.133 15.026 15.1171 15.0205C15.0769 15.0067 15.0339 15 15 15H13.0216C13.0191 15.002 13.0162 15.0045 13.0132 15.0077C13.009 15.0121 13.0051 15.0169 13.002 15.0216L13 15.0247Z" fill="black"/>
<path d="M5 13C5 12.4477 4.55228 12 4 12C3.44772 12 3 12.4477 3 13V18C3 18.5523 3.44772 19 4 19H9C9.55228 19 10 18.5523 10 18C10 17.4477 9.55228 17 9 17H5V13Z" fill="black"/>
</svg>

<svg xmlns="http://www.w3.org/2000/svg" width="24" height="24" fill="none" viewBox="0 0 24 24"><path fill="#000" fill-rule="evenodd" d="M2 4c0-1.013.8608-2 2.0006-2H6c.496 0 1.0624.1668 1.4856.5406l.0323.0285L7.9284 3h3.071C12.1392 3 13 3.987 13 5v4c0 1.0131-.8608 2-2.0006 2H4.0006C2.8608 11 2 10.0131 2 9zm2 .0247v4.9506l.002.0031A.1.1 0 0 0 4.0216 9h6.9568a.09.09 0 0 0 .0196-.0216L11 8.9753V5.0247l-.002-.0031A.1.1 0 0 0 10.9784 5H7.5a1 1 0 0 1-.724-.3102l-.6236-.6545a.3.3 0 0 0-.0353-.0148A.38.38 0 0 0 6 4H4.0216a.1.1 0 0 0-.0196.0216zM5 13c0-.5523-.4477-1-1-1s-1 .4477-1 1v5c0 .5523.4477 1 1 1h5c.5523 0 1-.4477 1-1s-.4477-1-1-1H5zm8.0006 0C11.8608 13 11 13.9869 11 15v5c0 1.0131.8608 2 2.0006 2h6.9988C21.1392 22 22 21.0131 22 20v-4c0-1.0131-.8608-2-2.0006-2h-3.0709l-.4106-.4309-.0323-.0285C16.0624 13.1668 15.496 13 15 13zM13 19.9753v-4.9506l.002-.0031A.1.1 0 0 1 13.0216 15H15a.38.38 0 0 1 .1171.0205.3.3 0 0 1 .0353.0148l.6236.6545A1 1 0 0 0 16.5 16h3.4784a.1.1 0 0 1 .0155.0159l.0041.0057.002.0031v3.9506l-.002.0031a.1.1 0 0 1-.0112.0139l-.0045.0044-.0039.0033h-6.9568a.1.1 0 0 1-.0196-.0216z"/></svg>
